local/share/icons/dracula-icons-main/scalable/apps/youtube-music-desktop-app.svg

<?xml version="1.0" encoding="UTF-8"?>
<svg xmlns="http://www.w3.org/2000/svg" xmlns:xlink="http://www.w3.org/1999/xlink" width="64" height="64" viewBox="0 0 64 64">
<path fill-rule="nonzero" fill="rgb(92.54902%, 31.372549%, 33.72549%)" fill-opacity="1" d="M 32 5 C 46.910156 5 59 17.089844 59 32 C 59 46.910156 46.910156 59 32 59 C 17.089844 59 5 46.910156 5 32 C 5 17.089844 17.089844 5 32 5 Z M 32 5 "/>
<path fill-rule="nonzero" fill="rgb(100%, 100%, 100%)" fill-opacity="1" d="M 31.910156 14 C 22.003906 14.050781 14 22.09375 14 32 C 14 41.941406 22.058594 50 32 50 C 41.941406 50 50 41.941406 50 32 C 50 22.058594 41.941406 14 32 14 C 31.96875 14 31.941406 14 31.910156 14 Z M 27.738281 22.660156 C 28.089844 22.679688 28.414062 22.792969 28.714844 23.003906 L 39.929688 30.730469 C 40.28125 30.980469 40.527344 31.308594 40.664062 31.714844 C 40.800781 32.117188 40.800781 32.527344 40.664062 32.9375 C 40.527344 33.34375 40.28125 33.671875 39.925781 33.917969 L 28.714844 41.644531 C 28.3125 41.921875 27.871094 42.03125 27.386719 41.972656 C 26.898438 41.910156 26.496094 41.699219 26.171875 41.332031 C 25.847656 40.96875 25.679688 40.539062 25.679688 40.050781 L 25.679688 24.597656 C 25.679688 24.109375 25.847656 23.679688 26.171875 23.3125 C 26.496094 22.949219 26.898438 22.734375 27.386719 22.675781 C 27.503906 22.660156 27.625 22.65625 27.742188 22.660156 Z M 27.738281 22.660156 "/>
</svg>

<svg width="64" height="64" version="1.1" viewBox="0 0 64 64" xmlns="http://www.w3.org/2000/svg">
 <rect x="5" y="5" width="54" height="54" rx="27" ry="27" fill="#ec5056" stroke-width="3.6445"/>
 <path d="m31.91 14a18 18 0 0 0-17.91 18 18 18 0 0 0 18 18 18 18 0 0 0 18-18 18 18 0 0 0-18-18 18 18 0 0 0-0.08984 0zm-4.1699 8.6603c0.34816 0.01806 0.67356 0.13305 0.97657 0.34375l11.213 7.7267c0.3532 0.2488 0.59793 0.57707 0.73438 0.98243 0.13644 0.4054 0.13644 0.81524 0 1.2246-0.13642 0.40535-0.38111 0.73371-0.73828 0.97853l-11.209 7.7267c-0.40534 0.27693-0.84642 0.38833-1.332 0.32812-0.48561-0.06021-0.88782-0.27345-1.2129-0.63868s-0.49023-0.79358-0.49023-1.2832v-15.451c0-0.48963 0.16515-0.91995 0.49023-1.2852 0.32512-0.36522 0.72728-0.57847 1.2129-0.63867 0.12107-0.01539 0.23942-0.01969 0.35547-0.01367z" fill="#ffffff" stroke-linecap="round" stroke-linejoin="round" stroke-width="3.9543"/>
</svg>
